(
name: \tablaSitar,
// scaleSeed: 234,
// scaleName: \hungarianMinor,
onNdefs:  [
	(ndef: Ndef(\Ph_tabloid),
		vol: 0.3,
		settings: [\detune, 0],
		netIndex: (9..18)
	),
	(ndef: Ndef(\Ph_sitar1),
		vol: 0.6,
		settings: [\detune, 0],
		netIndex: (0..8)
	)
])