(
name: \tablaRingz,
// scaleSeed: 23,
// scaleName: \hungarianMinor,
onNdefs:  [
	(ndef: Ndef(\Ph_tabloid),
		vol: 0.1,
		settings: [\detune, -7],
		netIndex: (0..8)
	),
	(ndef: Ndef(\Ph_ropesRingz),
		vol: 0.2,
		settings: [\detune, 0],
		netIndex: (9..18)
	)
])